dist/assets/img/section-1/header-logo.svg

<svg width="181" height="52" viewBox="0 0 181 52" fill="none" xmlns="http://www.w3.org/2000/svg">
<path d="M75.8804 20.0471H69.942V50H63.1553V20.0471H58.261V13.8477H63.1553V1.70989H69.942V13.8477H75.8804V20.0471ZM115.579 31.467C115.579 32.5982 115.514 33.7293 115.383 34.8604H85.4303C86.1264 37.7317 87.5403 40.1027 89.672 41.9734C91.8473 43.8006 94.3923 44.7142 97.3071 44.7142C99.4388 44.7142 101.44 44.1704 103.311 43.0828C105.225 41.9952 106.661 40.516 107.618 38.6453H114.404C113.012 42.3432 110.75 45.3233 107.618 47.5855C104.485 49.8042 100.961 50.9136 97.0461 50.9136C91.956 50.9136 87.6056 49.0211 83.9947 45.2362C80.4273 41.4513 78.6436 36.9921 78.6436 31.8586C78.6436 26.5945 80.4273 22.1135 83.9947 18.4157C87.5621 14.7178 91.956 12.8688 97.1766 12.8688C102.267 12.8688 106.595 14.696 110.163 18.3504C113.774 22.0048 115.579 26.377 115.579 31.467ZM108.792 29.6398C108.618 26.6815 107.357 24.18 105.007 22.1353C102.702 20.0906 100.07 19.0682 97.1113 19.0682C94.153 19.0682 91.4992 20.0906 89.15 22.1353C86.8442 24.18 85.6044 26.6815 85.4303 29.6398H108.792ZM138.001 19.8513C136.305 19.8513 134.673 20.2864 133.107 21.1564C130.453 22.5051 129.126 25.5287 129.126 30.2272V50H122.34V13.8477H128.67V17.1105H128.8C130.714 14.4132 133.781 12.9993 138.001 12.8688V19.8513ZM177.841 31.467C177.841 32.5982 177.775 33.7293 177.645 34.8604H147.692C148.388 37.7317 149.802 40.1027 151.934 41.9734C154.109 43.8006 156.654 44.7142 159.569 44.7142C161.701 44.7142 163.702 44.1704 165.572 43.0828C167.487 41.9952 168.922 40.516 169.879 38.6453H176.666C175.274 42.3432 173.012 45.3233 169.879 47.5855C166.747 49.8042 163.223 50.9136 159.308 50.9136C154.218 50.9136 149.867 49.0211 146.256 45.2362C142.689 41.4513 140.905 36.9921 140.905 31.8586C140.905 26.5945 142.689 22.1135 146.256 18.4157C149.824 14.7178 154.218 12.8688 159.438 12.8688C164.528 12.8688 168.857 14.696 172.424 18.3504C176.035 22.0048 177.841 26.377 177.841 31.467ZM171.054 29.6398C170.88 26.6815 169.618 24.18 167.269 22.1353C164.963 20.0906 162.331 19.0682 159.373 19.0682C156.415 19.0682 153.761 20.0906 151.412 22.1353C149.106 24.18 147.866 26.6815 147.692 29.6398H171.054Z" fill="#75BF7A"/>
<path d="M49.1393 16.4156L49.0128 16.1073L48.7779 16.3435L44.0983 21.0479L44.009 21.1376L44.0411 21.26C44.4323 22.7514 44.6281 24.2924 44.6281 25.8834C44.6281 36.2098 36.2346 44.6034 25.9082 44.6034C15.5568 44.6034 7.1635 36.2097 7.1635 25.8834C7.1635 24.2672 7.3594 22.7015 7.75049 21.2105L7.7826 21.0881L7.69336 20.9984L3.01379 16.294L2.77804 16.057L2.65209 16.3667C1.45339 19.3135 0.778814 22.5109 0.778814 25.8834C0.778814 39.7224 12.0444 50.9881 25.8834 50.9881C39.7224 50.9881 50.9881 39.7224 50.9881 25.8834C50.9881 22.5368 50.3387 19.3391 49.1393 16.4156ZM41.4469 15.4838L41.5967 15.7073L41.787 15.517L46.0456 11.2583L46.1805 11.1235L46.067 10.9703C41.4962 4.80102 34.1522 0.778814 25.8834 0.778814C17.6397 0.778814 10.2956 4.77597 5.72469 10.9455L5.61116 11.0987L5.74601 11.2336L10.0047 15.4922L10.1949 15.6825L10.3448 15.459C13.1835 11.2253 17.7106 8.2157 22.9465 7.38368C23.9004 7.23696 24.8793 7.1635 25.8834 7.1635C26.8876 7.1635 27.8666 7.23696 28.8205 7.38369C34.0805 8.21564 38.6078 11.2497 41.4469 15.4838Z" fill="#75BF7A" stroke="#75BF7A" stroke-width="0.442372"/>
<path d="M28.8623 26.6944H29.0835V26.4732L29.0835 3.422V3.20081H28.8623L22.92 3.20081L22.6988 3.20081V3.422L22.6988 26.4732V26.6944H22.92H28.8623Z" fill="#75BF7A" stroke="#75BF7A" stroke-width="0.442372"/>
</svg>

<svg width="181" height="52" fill="none" xmlns="http://www.w3.org/2000/svg"><path d="M75.88 20.047h-5.938V50h-6.787V20.047h-4.894v-6.2h4.894V1.71h6.787v12.138h5.938v6.2zm39.699 11.42a29.47 29.47 0 01-.196 3.393H85.43c.696 2.872 2.11 5.243 4.242 7.113 2.175 1.828 4.72 2.741 7.635 2.741 2.132 0 4.133-.544 6.004-1.631 1.914-1.088 3.35-2.567 4.307-4.438h6.786c-1.392 3.698-3.654 6.678-6.786 8.94-3.133 2.22-6.657 3.329-10.572 3.329-5.09 0-9.44-1.893-13.051-5.678-3.568-3.785-5.351-8.244-5.351-13.377 0-5.265 1.783-9.746 5.35-13.443 3.568-3.698 7.962-5.547 13.183-5.547 5.09 0 9.418 1.827 12.986 5.481 3.611 3.655 5.416 8.027 5.416 13.117zm-6.787-1.827c-.174-2.959-1.435-5.46-3.785-7.505-2.305-2.044-4.937-3.067-7.896-3.067-2.958 0-5.612 1.023-7.961 3.067-2.306 2.045-3.546 4.546-3.72 7.505h23.362zm29.209-9.789c-1.696 0-3.328.435-4.894 1.305-2.654 1.35-3.981 4.373-3.981 9.071V50h-6.786V13.848h6.33v3.262h.13c1.914-2.697 4.981-4.11 9.201-4.241v6.982zm39.84 11.616c0 1.131-.066 2.262-.196 3.393h-29.953c.696 2.872 2.11 5.243 4.242 7.113 2.175 1.828 4.72 2.741 7.635 2.741 2.132 0 4.133-.544 6.003-1.631 1.915-1.088 3.35-2.567 4.307-4.438h6.787c-1.392 3.698-3.654 6.678-6.787 8.94-3.132 2.22-6.656 3.329-10.571 3.329-5.09 0-9.441-1.893-13.052-5.678-3.567-3.785-5.351-8.244-5.351-13.377 0-5.265 1.784-9.746 5.351-13.443 3.568-3.698 7.962-5.547 13.182-5.547 5.09 0 9.419 1.827 12.986 5.481 3.611 3.655 5.417 8.027 5.417 13.117zm-6.787-1.827c-.174-2.959-1.436-5.46-3.785-7.505-2.306-2.044-4.938-3.067-7.896-3.067s-5.612 1.023-7.961 3.067c-2.306 2.045-3.546 4.546-3.72 7.505h23.362z" fill="#75BF7A"/><path d="M49.14 16.416l-.127-.309-.235.236-4.68 4.705-.089.09.032.122a18.15 18.15 0 01.587 4.623c0 10.327-8.393 18.72-18.72 18.72-10.351 0-18.745-8.393-18.745-18.72 0-1.616.196-3.181.587-4.672l.033-.123-.09-.09-4.68-4.704-.235-.237-.126.31A25.152 25.152 0 00.78 25.883c0 13.84 11.265 25.105 25.104 25.105 13.84 0 25.105-11.266 25.105-25.105 0-3.346-.65-6.544-1.849-9.467zm-7.693-.932l.15.223.19-.19 4.259-4.259.135-.134-.114-.154C41.497 4.801 34.152.78 25.883.78 17.64.78 10.296 4.777 5.725 10.946l-.114.154.135.135 4.259 4.258.19.19.15-.223a18.736 18.736 0 0112.601-8.075c.954-.147 1.933-.22 2.937-.22 1.005 0 1.984.073 2.938.22 5.26.832 9.787 3.866 12.626 8.1z" fill="#75BF7A" stroke="#75BF7A" stroke-width=".442"/><path d="M28.862 26.694h.222V3.201h-6.386v23.493h6.163z" fill="#75BF7A" stroke="#75BF7A" stroke-width=".442"/></svg>
